X:1
T:Provo, 87.87 D repeat
T:Provo, 87.87 D repeat
T:Anonymous, 1887
T:Public Domain Courtesy of the Cyber Hymnal™
C:Anonymous, 1887
Z:Public Domain
Z:Courtesy of the Cyber Hymnal™
%%score ( 1 2 ) ( 3 4 )
L:1/8
Q:1/4=95
M:3/4
K:Bb
V:1 treble 
V:2 treble 
V:3 bass 
V:4 bass 
V:1
 [FB]>[FB] [FB]2 [FA]2 | [Ec]>[Ec] [Ec]2 [DB]2 | [Fd]>[Fd] [Fc][FB] [FA][=EG] | (F2 c2) [EF]>[EF] | %4
 (FB [Fd])[Ec] [DB][Gc] | A2 [DB]2 [Fe]>[Fc] | [Fd][GB] [FA]2 [=EG]2 | F4 x2 | %8
 [DB]>[DF] [Fd][DB] [Ff][Fd] | [Fd]2 [Fc]2 [F=B]>[FB] | [Gc]G (df) (ec) | (B2 A2) [EF]>[EF] | %12
 [DB]2 [FB]2 [Fd]>[FB] | [Ff]2 [Fd]2 [Ec][Fd] | [DB][^FA] [GB]2 [Gc]2 | [^Fd]4 [=Fe]>[Fc] | %16
 [Ff]2 [DB]2 [Gc]>[Gd] | [Ge]2 [FA]2 [FB][Fc] | [Fd][GB] [Gc]2 A2 | !fermata![DB]4 |] %20
V:2
 x6 | x6 | x6 | F4 x2 | D2 x4 | (FE) x4 | x6 | F4 (3(GBc) | x6 | x6 | x G G2 G2 | F4 x2 | x6 | x6 | %14
 x6 | x6 | x6 | x6 | x4 (FE) | x4 |] %20
V:3
 [B,,D]>[D,D] [F,D]2 [F,C]2 | [F,A,]>[F,A,] [B,,B,]2 [B,,F,]2 | %2
 [B,,B,]>[B,,B,] [A,,F][B,,D] [C,C][C,B,] | A,4 [C,A,]>[F,A,] | (B,2 F,)[F,A,] [G,B,][E,E] | %5
 [F,C]2 [G,B,]2 [A,C]>[A,C] | B,[B,,D] [C,C]2 [C,B,]2 | [F,A,]4 z2 | %8
 [B,,B,]>[B,,B,] [B,,B,][B,,F,] [B,,D][D,B,] | [F,B,]2 [F,A,]2 [G,D]>[G,D] | %10
 [E,C][E,C] [E,=B,]2 (CE) | (D2 C2) [F,A,]>[F,A,] | (B,>F,) [B,,D]2 B,>[B,D] | %13
 [B,D]2 B,2 [F,A,][F,A,] | [G,B,][D,D] [G,D]2 [E,G,]2 | [D,A,]4 [C,A,]>[E,A,] | %16
 [D,B,]2 [G,B,]2 [E,B,]>[D,=B,] | [C,C]2 [F,C]2 [D,B,][F,A,] | B,[G,D] [E,E]2 [F,C]2 | %19
 !fermata![B,,B,]4 |] %20
V:4
 x6 | x6 | x6 | (F,2 E,2) x2 | B,,3 x3 | x6 | B, x5 | x6 | x6 | x6 | x4 C,2 | F,4 x2 | %12
 B,,2 x/ B,3/2 x2 | x2 B,2 x2 | x6 | x6 | x6 | x6 | B, x5 | x4 |] %20

